X: 31301
T: COTILLION No. 24. EXTRAVAGANT SETT tune 1
C:
%R: jig
B: Elias Howe "The Musician's Companion" Part 3 1844 p.130 #1
S: http://imslp.org/wiki/The_Musician's_Companion_(Howe,_Elias)
Z: 2015 John Chambers <jc:trillian.mit.edu>
M: 6/8
L: 1/8
K: F
% - - - - - - - - - - - - - - - - - - - - - - - - - - - - -
c |\
a2g a2g | f2f fed | cdc cde | fga gc'b |\
a2g a2g | f2f fed | cdc cde | g3 f2 H|]
c |\
g2g gfe | a2a afd | =B2B Bag | f3 e2c |\
g2g gfe | a2a abc' | gag fed | [ec]cd ef"^D.C."g |]
A |\
a3 ^c3 | d3 def | efe efd | ^cd=B Afg |\
a3 ^c3 | d3 def | =cdc cBG | F3 "^D.C."F2 |]
% - - - - - - - - - - Dance description - - - - - - - - - -
%%begintext align
%% First lady forward and back twice,
%% opposite gentleman the same,
%% balance 4.
%% Next 2 forward, &c.
%%endtext
% - - - - - - - - - - - - - - - - - - - - - - - - - - - - -
%%sep 1 1 300
